svgs/mi_files.svg

<?xml version="1.0" encoding="UTF-8" standalone="no"?>
<svg
   width="24"
   height="24"
   viewBox="0 0 24 24"
   fill="none"
   version="1.1"
   id="svg8"
   sodipodi:docname="mi_files.svg"
   inkscape:version="1.1.1 (3bf5ae0d25, 2021-09-20)"
   xmlns:inkscape="http://www.inkscape.org/namespaces/inkscape"
   xmlns:sodipodi="http://sodipodi.sourceforge.net/DTD/sodipodi-0.dtd"
   xmlns="http://www.w3.org/2000/svg"
   xmlns:svg="http://www.w3.org/2000/svg">
  <defs
     id="defs12" />
  <sodipodi:namedview
     id="namedview10"
     pagecolor="#ffffff"
     bordercolor="#666666"
     borderopacity="1.0"
     inkscape:pageshadow="2"
     inkscape:pageopacity="0.0"
     inkscape:pagecheckerboard="0"
     showgrid="false"
     inkscape:lockguides="true"
     inkscape:zoom="17.354167"
     inkscape:cx="-15.356543"
     inkscape:cy="15.788715"
     inkscape:window-width="2560"
     inkscape:window-height="1011"
     inkscape:window-x="0"
     inkscape:window-y="32"
     inkscape:window-maximized="1"
     inkscape:current-layer="svg8"
     inkscape:snap-smooth-nodes="true"
     inkscape:snap-midpoints="true"
     inkscape:snap-intersection-paths="true"
     inkscape:object-paths="true" />
  <path
     id="path2532"
     d="m 11.271584,4.199996 0.45664,0.639258 v 2e-4 c 0.175151,0.245189 0.242289,0.32609 0.277735,0.353906 0.04999,0.039234 0.106939,0.068628 0.167968,0.086523 C 12.217184,5.29256 12.321792,5.3 12.623341,5.3 h 6.776563 c 0.06756,0 0.123508,-6.6e-5 0.185351,-4e-4 -0.0012,-0.00245 -0.0021,-0.00518 -0.0033,-0.00762 -0.1917,-0.37633 -0.497723,-0.682284 -0.874023,-0.874024 -0.4278,-0.21799 -0.987908,-0.217969 -2.108008,-0.217969 z"
     style="fill:#000000;stroke-width:0.1"
     sodipodi:nodetypes="cccccssccccc" />
  <path
     id="path2534"
     style="fill:#000000;fill-opacity:1;stroke-width:0.1"
     d="M 7.8007812 3 C 6.1206222 3 5.2804019 2.9991919 4.6386719 3.3261719 C 4.0741818 3.6137929 3.6137929 4.0741819 3.3261719 4.6386719 C 2.9991919 5.2804019 3 6.1206212 3 7.8007812 L 3 16.199219 C 3 17.879418 2.9991919 18.719528 3.3261719 19.361328 C 3.6137929 19.925828 4.0741818 20.386228 4.6386719 20.673828 C 5.2804019 21.000828 6.1206222 21 7.8007812 21 L 16.199219 21 C 17.879419 21 18.719528 21.000828 19.361328 20.673828 C 19.925829 20.386228 20.386227 19.925828 20.673828 19.361328 C 21.000828 18.719528 21 17.879418 21 16.199219 L 21 7.4003906 C 21 6.8403406 20.999625 6.5596131 20.890625 6.3457031 C 20.794725 6.1575431 20.641325 6.0040831 20.453125 5.9082031 C 20.239224 5.7992131 19.960491 5.8007813 19.400391 5.8007812 L 12.623047 5.8007812 C 12.321497 5.8007812 12.170963 5.8001456 12.033203 5.7597656 C 11.911213 5.7239956 11.797266 5.6644175 11.697266 5.5859375 C 11.584326 5.4973075 11.497546 5.3762394 11.322266 5.1308594 L 10.279297 3.6699219 C 10.104017 3.4245399 10.015284 3.3015166 9.9023438 3.2128906 C 9.8023438 3.1344106 9.6883963 3.0767766 9.5664062 3.0410156 C 9.4286463 3.0006306 9.2781125 3 8.9765625 3 L 7.8007812 3 z M 5.3886719 13.800781 L 9.265625 13.800781 C 9.6398472 13.800781 9.9748647 13.861419 10.341797 14.220703 C 10.692503 14.564703 10.724609 14.954562 10.724609 15.226562 L 10.724609 18.523438 C 10.724609 18.565748 10.689824 18.599609 10.646484 18.599609 L 9.6289062 18.599609 C 9.5853152 18.599609 9.5488281 18.565748 9.5488281 18.523438 L 9.5488281 15.576172 C 9.5488281 15.271283 9.3746481 14.800781 8.7578125 14.800781 L 6.5644531 14.800781 C 6.5208621 14.800781 6.484375 14.834823 6.484375 14.876953 L 6.484375 18.523438 C 6.484375 18.565747 6.449592 18.599609 6.40625 18.599609 L 5.3886719 18.599609 C 5.3450809 18.599609 5.3085938 18.565748 5.3085938 18.523438 L 5.3085938 13.876953 C 5.3085938 13.834293 5.3450809 13.800781 5.3886719 13.800781 z M 11.724609 13.800781 L 12.742188 13.800781 C 12.785407 13.800781 12.820312 13.834283 12.820312 13.876953 L 12.820312 18.523438 C 12.820313 18.565747 12.785407 18.599609 12.742188 18.599609 L 11.724609 18.599609 C 11.681019 18.599609 11.644531 18.565748 11.644531 18.523438 L 11.644531 13.876953 C 11.644531 13.834293 11.681019 13.800781 11.724609 13.800781 z M 7.4824219 15.650391 L 8.5527344 15.650391 C 8.5959704 15.650391 8.6308594 15.684072 8.6308594 15.726562 L 8.6308594 18.523438 C 8.6308594 18.565568 8.5959694 18.599609 8.5527344 18.599609 L 7.4824219 18.599609 C 7.4388309 18.599609 7.4042969 18.565568 7.4042969 18.523438 L 7.4042969 15.726562 C 7.4042969 15.684072 7.4388309 15.650391 7.4824219 15.650391 z " />
</svg>

<svg xmlns="http://www.w3.org/2000/svg" width="24" height="24" fill="#000" xmlns:v="https://vecta.io/nano"><path d="M11.272 4.2l.457.639h0l.278.354a.5.5 0 0 0 .168.087c.043.013.148.02.449.02H19.4h.185a2 2 0 0 0-.877-.882C18.28 4.2 17.72 4.2 16.6 4.2zM7.801 3c-1.68 0-2.52-.001-3.162.326-.564.288-1.025.748-1.313 1.313C2.999 5.28 3 6.121 3 7.801v8.398c0 1.68-.001 2.52.326 3.162.288.564.748 1.025 1.313 1.313.642.327 1.482.326 3.162.326h8.398c1.68 0 2.52.001 3.162-.326a3.01 3.01 0 0 0 1.313-1.312c.327-.642.326-1.482.326-3.162V7.4c0-.56 0-.841-.109-1.055a1 1 0 0 0-.437-.437c-.214-.109-.493-.107-1.053-.107h-6.777c-.302 0-.452-.001-.59-.041a1 1 0 0 1-.336-.174c-.113-.089-.2-.21-.375-.455L10.279 3.67c-.175-.245-.264-.368-.377-.457a1.01 1.01 0 0 0-.336-.172C9.428 3.001 9.278 3 8.976 3H7.801zM5.389 13.801h3.877c.374 0 .709.061 1.076.42.351.344.383.734.383 1.006v3.297c0 .042-.035.076-.078.076H9.629c-.044 0-.08-.034-.08-.076v-2.947c0-.305-.174-.775-.791-.775H6.564c-.044 0-.08.034-.08.076v3.646c0 .042-.035.076-.078.076H5.389c-.044 0-.08-.034-.08-.076v-4.646c0-.043.036-.076.08-.076zm6.336 0h1.018c.043 0 .078.034.078.076v4.646c0 .042-.035.076-.078.076h-1.018c-.044 0-.08-.034-.08-.076v-4.646c0-.043.036-.076.08-.076zm-4.242 1.85h1.07c.043 0 .078.034.078.076v2.797c0 .042-.035.076-.078.076h-1.07c-.044 0-.078-.034-.078-.076v-2.797c0-.042.035-.076.078-.076z"/></svg>
